X:1
T:Fuchstanz
C:traditionell
R:walzer
A:Bandrow, Galizien (Ukraine)
%%textfont Helvetica-Narrow 10pt
%%begintext align
B:Deutsche Volkstaenze, Heft 48/49, Deutsche Volkstaenze aus dem Karpatenraum, Karl Horak, Baerenreiter, Basel, London, New York 1961
N:im buch s. 16
N:im buch ganz in A, einstimmig, 1. ton e', ambitus e' - e''
S:
%%endtext 
F:http://simonwascher.info 
Z:abc transcription Simon Wascher
M:3/4
L:1/4
K:C %Transposed from A
G |\
c>cc | (ceg) | c>cc | (Bd)G |\
c>cc | ceg | e/G/ed/B/ | c3 :|
|:\
e2 (d/e/) | .f.d.d | f2(e/f/) | .g.e.e |\
f>ed/c/ | BGG | e(d/f/) d/B/ | c3 :|
%%wordsfont Times-Italic 11pt
W:aus Simon Waschers TradArchiv
